X: 379
T: Change Alley
%R: reel
Z: 2014 John Chambers <jc:trillian.mit.edu>
B: Preston "Twenty four Country Dances for the Year 1800" p.170 #1
F: http://www.vwml.org/browse/browse-collections-dance-tune-books/browse-prestons1800# 2014-8-10
M: C|
L: 1/8
K: D
B |\
AFAf edBd | AFAB dedB |\
AFAf edBg | aAAB d3 :|
|: g |\
fedf edBg | fefg abaf |\
gafg edBg | f/g/a AB d3 :|
% - - - - - - - - - - - - - - - - - - - - - - - - -
%%begintext align
%% 1st & 2d Ladies lead thro' between their
%% Part.rs .| 1st & 2d Gent.n do the same :| cross
%% over one Cu: :|. foot it to your Partner and
%% turn her :|:
%%endtext
% - - - - - - - - - - - - - - - - - - - - - - - - -

%%sep 1 1 500
%%sep 1 1 500
